!!!!SEGMENT: pl-wumfc--r245--001-004_paderewski-ignacy-jan--stara-suita-op-3-fuga.krn
!!!cenid: 18xx:3140
!!!COM: Paderewski, Ignacy Jan
!!!COM-rismID: pe30029943
!!!CDT: 1860/11/18-1941/06/29
!!!CNT: Polish
!!!OPR: Stara suita op. 3
!!!OTL: Fuga
!!!OMV: 004
!!!PDT:
!!!AGN:
!!!SMS-siglum: PL-Wumfc
!!!SMS-shelfmark: R245
!!!SMS-shelfwork: 001-004 M
!!!SMS-variant:
!!!SMS-altvar:
!!!NIFC-rismSourceID: 1001155838
!!!NIFC-islandoraID: pl-wumfc:171
!!!URL-pdf-islandora: https://repozytorium.nifc.pl/islandora/object/pl-wumfc%3A171/datastream/PDF/view
!!!URL-scan: https://polish.musicsources.pl/pl/lokalizacje/galeria/rekopisy/4665 @EN{Scan on Polish Music Sources Website} @PL{Skany w portalu Dziedzictwo Muzyki Polskiej w otwartym dostępie}
!!!ONB-nifc: UWAGA: części Suity: 1.Preludio, 2. Intermezzo, 3. Aria, 4. Fuga
!!!OMD: Allegro comodo
!!!AIN: 1 piano
!!!key: d
**kern	**fing	**kern	**fing	**dynam
*part1	*part1	*part1	*part1	*part1
*staff2	*staff2	*staff1	*staff1	*
*Ipiano	*	*Ipiano	*	*
*ICklav	*	*ICklav	*	*
*I"Fortepian	*	*I"Fortepian	*	*
*clefF4	*	*clefG2	*	*
*k[b-]	*	*k[b-]	*	*
*d:	*	*d:	*	*
*M3/8	*	*M3/8	*	*
*all\right	*	*all\right	*	*
=1	=1	=1	=1	=1
4.ryy	.	8r	.	.
.	.	(>8a/L	.	.
.	.	[8dd^/J	.	.
=2	=2	=2	=2	=2
4.ryy	.	8dd/L]	.	.
.	.	16cc#X/L	.	.
.	.	16dd/	.	.
.	.	16ee/	.	.
.	.	16ff/JJ	.	.
=3	=3	=3	=3	=3
4.ryy	.	16dd/LL	.	.
.	.	16ff/J	.	.
.	.	8aa/	.	.
.	.	8aa/J	.	.
=4	=4	=4	=4	=4
4.ryy	.	4aa/	.	sf
.	.	16bb-/LL	.	.
.	.	16aa/JJ	.	.
!!LO:LB:g=original
=5	=5	=5	=5	=5
4.ryy	.	16gg/LL	.	>
.	.	16bb-/	.	.
.	.	16aa/	.	.
.	.	16gg/	.	.
.	.	16ff/	.	.
.	.	16ee/JJ	.	.
=6	=6	=6	=6	=6
4.ryy	.	16ff/LL	.	.
.	.	16aa/	.	.
.	.	16gg/	.	.
.	.	16ff/	.	.
.	.	16ee/	.	]
.	.	16dd/JJ	.	.
=7	=7	=7	=7	=7
!	!	!LO:TX:b:i:t=rit:rj	!	!
4.ryy	.	16ee/LL	.	.
.	.	16ff/	.	.
.	.	16dd/	.	.
.	.	16cc/	.	.
.	.	16bn/	.	.
.	.	16ee/JJ)	.	.
=8	=8	=8	=8	=8
8r>	.	16a/LL	.	.
!	!	!LO:TX:b:i:t=marcato	!	!
.	.	16bn/	.	.
8e>\L	.	16cc/	.	.
.	.	16b/	.	.
[8a>\J	.	16cc/	.	.
.	.	16dd/JJ	.	.
=9	=9	=9	=9	=9
8a>\L]	.	16ee/LL	.	<
.	.	16ff/J	.	.
16g#>X\L	.	8ee/	.	.
16a>\	.	.	.	.
16bn>\	.	8ddd/J	.	.
16cc>\JJ	.	.	.	[[
!!LO:LB:g=original
=10	=10	=10	=10	=10
16a>\LL	.	8ccc/L	.	.
16cc>\J	.	.	.	.
8ee>\	.	16bbn/L	.	.
.	.	16aa/	.	.
8ee>\J	.	16gg#X/	.	.
.	.	16bb/JJ	.	.
=11	=11	=11	=11	=11
!	!	!	!	!LO:DY:rj
4ee>\	.	16ccc/LL	.	sf
.	.	16ddd/	.	.
.	.	16ccc/	.	.
.	.	16bbn/J	.	.
16ff>\LL	.	[8aa/J	.	.
16ee>\JJ	.	.	.	.
=12	=12	=12	=12	=12
16dd>\LL	.	8aa/L]	.	.
16ff>\	.	.	.	.
16ee>\	.	8gg#X/	.	.
16dd>\	.	.	.	.
16cc>\	.	[8eee/J	.	.
16bn>\JJ	.	.	.	.
=13	=13	=13	=13	=13
16cc>\LL	.	8eee/L]	.	>
16ee>\	.	.	.	.
16dd>\	.	8ff/	.	.
16cc>\	.	.	.	.
16bn>\	.	[8ddd/J	.	.
16a>\JJ	.	.	.	.
!!LO:LB:g=original
=14	=14	=14	=14	=14
16g#>X\LL	.	8ddd/L]	.	.
16bn>\	.	.	.	.
16a>\	.	8ccc/	.	.
16cc>\	.	.	.	]
16b>\	.	8gg#X/J	.	<
16dd>\JJ	.	.	.	[[
=15	=15	=15	=15	=15
(16cc>\LL	.	(8aa/	.	>
16ee>\	.	.	.	.
16dd>\	.	4ff^/)	.	.
16cc>\	.	.	.	.
16bn>\	.	.	.	.
16a>\JJ)	.	.	.	]
=16	=16	=16	=16	=16
(16bn>\LL	.	8gg/	.	>
16dd>\	.	.	.	.
16cc>\	.	4ee^/	.	]]
16b>\	.	.	.	.
16a>\	.	.	.	.
16g>\JJ)	.	.	.	.
=17	=17	=17	=17	=17
8a>\	.	(16ff/LL	.	.
.	.	16ee/	.	.
4b->^\	.	16dd/	.	sf
.	.	16cc#X/	.	.
.	.	16dd/	.	.
.	.	16ee/JJ	.	.
!!LO:LB:g=original
=18	=18	=18	=18	=18
16a>\LL	.	4.ff/)	.	<
16b->\	.	.	.	[
16a>\	.	.	.	>
16g>\	.	.	.	.
16f>\	.	.	.	.
16e>\JJ	.	.	.	]
=19	=19	=19	=19	=19
*	*	*	*	*^
(8f>\	.	(16dd/LL	.	<	.
.	.	16cc/	.	.	.
[4g>\	.	16b-/	.	.	sf
.	.	16a/	.	[	.
!	!	!LO:TX:b:i:t=molto ritenuto:dur=5s	!	!	!
.	.	16b-/	.	.	.
.	.	16cc/JJ	.	.	.
*	*	*	*	*v	*v
=20	=20	=20	=20	=20
16g>\LL]	.	4.cc#X/)	.	>
16f>\	.	.	.	.
16e>\	.	.	.	.
16d>\	.	.	.	.
16e>\	.	.	.	]
16a>\JJ)	.	.	.	.
!!LO:PB:g=original
=21	=21	=21	=21	=21
*	*	*^	*	*
!	!	!LO:TX:b:i:t=à tempo	!	!	!
8r	.	16dd/LL	4.f\	.	.
.	.	16ee/	.	.	.
8A\L	.	16ff/	.	.	.
.	.	16ee/	.	.	.
([8d^\J	.	16ff/	.	.	.
.	.	16dd/JJ	.	.	.
=22	=22	=22	=22	=22	=22
!	!	!	!	!	!LO:HP:b=2
8d\L]	.	8ee/L	16g\LL	.	<
.	.	.	16b-\J	.	.
16c#X\L	.	8aa/	8a\	.	.
16d\	.	.	.	.	.
16e\	.	8gg/J	8cc#X\J	.	.
16f\JJ	.	.	.	.	[
=23	=23	=23	=23	=23	=23
16d\LL	.	8.ff/L	8.dd\L	.	.
16f\J	.	.	.	.	.
8a\	.	.	.	.	.
.	.	16ee/L	16cc#X\L	.	.
8a\J	.	16dd/	16bn\	.	.
.	.	16ee/JJ	16cc#\JJ	.	.
=24	=24	=24	=24	=24	=24
4a\	.	16ff/LL	16dd\LL	.	.
.	.	16gg/JJ	16ee\	.	.
.	.	4aa/	16ff\	.	.
.	.	.	16ee\	.	.
16b-\LL	.	.	16dd\	.	.
16a\JJ)	.	.	16cc\JJ	.	.
!!LO:LB:g=original
=25	=25	=25	=25	=25	=25
(16g\LL	.	([8bb-/L	4b-\	.	.
16b-\	.	.	.	.	.
16a\	.	16bb-/L]	.	.	.
16g\	.	16ee/	.	.	.
16f\	.	16ff/	16dd\LL	.	.
16e\JJ)	.	16gg/JJ)	16dd-X\JJ	.	.
=26	=26	=26	=26	=26	=26
(16f\LL	.	([8aa/L	4cc\	.	.
16a\	.	.	.	.	.
16g\	.	16aa/L]	.	.	.
16f\	.	16dd/	.	.	.
16e\	.	16ee/	16cc\LL	.	.
16d\JJ)	.	16ff/JJ)	16bn\JJ	.	.
=27	=27	=27	=27	=27	=27
!	!	!	!	!	!LO:HP:b=2
16c#X\LL	.	(8gg/L	8b-X\L	.	<
16e\	.	.	.	.	.
16d\	.	8ff/	8a\	.	.
16f\	.	.	.	.	.
16e\	.	8cc#X/J	8b-\J	.	.
16g\JJ	.	.	.	.	[[
=28	=28	=28	=28	=28	=28
!	!	!	!	!	!LO:DY:b=2
16f\LL	.	4.dd/)	16a\LL	.	f
16g\	.	.	16b-\	.	.
16f\	.	.	16a\	.	.
16e\	.	.	16g\	.	.
16d\	.	.	16f\	.	.
16c\JJ	.	.	16e\JJ	.	.
!!LO:LB:g=original
=29	=29	=29	=29	=29	=29
8B-\L	.	(8dd/L	16d\LL	.	.
.	.	.	16e\	.	.
!	!	!	!	!	!LO:DY:b=2
(8A^\	.	8cc/	16f\	.	f
.	.	.	16e\	.	.
8d\J)	.	8a/J	16f\	.	.
.	.	.	16f#X\JJ	.	.
=30	=30	=30	=30	=30	=30
4G\	.	[4.b-/	16g\LL	.	>
.	.	.	16a\	.	.
.	.	.	16g\	.	.
.	.	.	16fn\	.	.
16G\LL	.	.	16e\	.	]
16F\JJ	.	.	16d\JJ	.	.
=31	=31	=31	=31	=31	=31
4.E\	.	16b-/])	16c\LL	.	.
.	.	.	.	.	<
.	.	16r	16d\	.	.
.	.	(8g/L	16c\	.	.
.	.	.	16B-\	.	.
.	.	[8cc/J	16A\	.	.
.	.	.	16G\JJ	.	[
=32	=32	=32	=32	=32	=32
16F\LL	.	8cc/L]	4.F\	.	>
16G\	.	.	.	.	.
16F\	.	8a/	.	.	.
16E\	.	.	.	.	.
16D\	.	8f/J)	.	.	.
16C\JJ	.	.	.	.	]
*	*	*v	*v	*	*
!!LO:LB:g=original
=33	=33	=33	=33	=33
*^	*	*	*	*
16B-/LL	4.D\	.	16f/	.	.
.	.	.	.	.	<
16c/	.	.	16r	.	.
16B-/	.	.	(>8f/L	.	.
16A/	.	.	.	.	.
16G/	.	.	[>8b-/J	.	.
16F/JJ	.	.	.	.	[
=34	=34	=34	=34	=34	=34
!	!	!	!LO:TX:b:i:t=rit.	!	!
16E/LL	8D\L	.	8b-/L]	.	.
16G/	.	.	.	.	.
16A/	8C#X\	.	8a/	.	>
16G/	.	.	.	.	.
16F/	8AA\J	.	8c#X/J)	.	.
16E/JJ	.	.	.	.	]]
=35	=35	=35	=35	=35	=35
!	!	!	!LO:TX:a:i:t=à tempo	!	!
16F/	8D\	.	(>16d/LL	.	<
16r	.	.	16e/	.	.
(<8A^/L	8rFF	.	16f/	.	.
.	.	.	16e/	.	[
8d^/J)	8rFF	.	16f/	.	.
!	!	!	!LO:TX:b:Bi:t=pocò e poco cres-cen-do:problem=dynamics with extention lines	!	!LO:HP:t=pocò e poco cres-cen-do
.	.	.	16g/JJ	.	<
=36	=36	=36	=36	=36	=36
(<16c#X/LL	4rFF	.	8a/L	.	.
16Bn/	.	.	.	.	.
16c#/	.	.	(>8e^>/	.	.
16A/	.	.	.	.	.
16B/	8rFF	.	8a/J)	.	.
16c#/JJ)	.	.	.	.	.
*v	*v	*	*	*	*
!!LO:LB:g=original
=37	=37	=37	=37	=37
*	*	*^	*	*^
!	!	!	!LO:TX:b:t=P:problem=mixed beam	!	!	!
8r	.	16f/LL	8d</L	.	.	.
.	.	16g/	.	.	.	.
!	!	!	!	!	!	!LO:DY:b=2:rj
(8D^\L	.	16a/	8f\	.	.	sf
.	.	16g/	.	.	.	.
8G\J	.	16a/	8f\J	.	.	.
.	.	16bn/JJ	.	.	.	.
=38	=38	=38	=38	=38	=38	=38
16C\LL	.	4.cc/)	16e\LL	.	.	.
16D\	.	.	16f\	.	.	.
!	!	!	!	!	!	!LO:HP:b=2:t=cres.
16E\	.	.	16g\	.	.	<
16D\	.	.	16f\	.	.	.
16E\	.	.	16g\	.	.	.
16F#X\JJ)	.	.	16a\JJ	.	[[	.
*	*	*	*	*	*v	*v
=39	=39	=39	=39	=39	=39
8G\	.	(16b-/LL	4g\	.	.
.	.	16cc/	.	.	.
!	!	!	!	!	!LO:DY:b=2:rj
(8GG^\L	.	16dd/	.	.	sf
.	.	16cc/	.	.	.
8C\J	.	16dd/	8b-\	.	.
.	.	16ee/JJ	.	.	<
=40	=40	=40	=40	=40	=40
16FF\LL	.	8ff/	16a\LL	.	.
16GG\	.	.	16b-\	.	.
16AA\	.	[4ee/	16cc\	.	.
16BB-\	.	.	16b-\	.	.
16C\	.	.	16a\	.	[
16C#X\JJ	.	.	16g\JJ	.	.
!!LO:LB:g=original
=41	=41	=41	=41	=41	=41
16D\LL	.	8ee/L]	4f\	.	.
16E\	.	.	.	.	.
16F\	.	8dd/	.	.	.
16G\	.	.	.	.	.
16A\	.	8cc/J)	8e\	.	.
16AA\JJ	.	.	.	.	.
.	.	.	.	.	f
=42	=42	=42	=42	=42	=42
4BB-\	.	(16b-/LL	4d\	.	.
.	.	16dd/	.	.	.
.	.	16cc/	.	.	.
.	.	16b-/	.	.	.
8C\	.	16a/	8e\	.	.
.	.	16g/JJ	.	.	.
*	*	*v	*v	*	*
=43	=43	=43	=43	=43
*^	*	*	*	*
8f>\	8FF\L)	.	16a/LL	.	.
.	.	.	16cc/	.	>
8D/L	8BB-\	.	16b-/	.	.
.	.	.	16a/	.	.
[8G/J	8BBn\J	.	16g/	.	.
.	.	.	16f/JJ)	.	]]
=44	=44	=44	=44	=44	=44
8G/L]	8C\L	.	16e/LL	.	]
.	.	.	16b-/	.	.
8A/	8C#X\	.	16a/	.	.
.	.	.	16g/	.	.
16Bn/L	16D\L	.	16f/	.	.
16c#X/JJ	16E\JJ	.	16e/JJ	.	.
!!LO:PB:g=original
=45	=45	=45	=45	=45	=45
16d/	4.F\	.	16d/LL	.	.
16ryy	.	.	16e/	.	<
!LO:S:s=1:note:problem=note-level slur	!	!	!	!	!
(<8A^</L	.	.	16f/	.	.
.	.	.	16e/	.	.
[8d/J)	.	.	16f/	.	.
.	.	.	16g/JJ	.	[[
=46	=46	=46	=46	=46	=46
8d/L]	4.A\	.	16a/LL	.	.
.	.	.	16b-/J	.	>
16c#X/L	.	.	8a/	.	.
16d/	.	.	.	.	.
16e/	.	.	8gg/J	.	.
16f/JJ	.	.	.	.	]
*v	*v	*	*	*	*
=47	=47	=47	=47	=47
*	*	*^	*	*^
16d\LL	.	8ff/L	16d</	.	.	.
16a\	.	.	16r	.	.	.
!	!	!	!	!	!LO:DY:a:rj	!LO:DY:b=2
16d\	.	8ff/	4r	.	p	pp
16a\	.	.	.	.	.	.
16d\	.	16gg/L	.	.	.	.
16a\JJ	.	16ff/JJ	.	.	.	.
*	*	*	*	*	*v	*v
=48	=48	=48	=48	=48	=48
4.c\	.	8ee/L	16a\LL	.	.
.	.	.	16bn\	.	.
!	!	!	!	!	!LO:DY:t=piano
.	.	(8ee^/	16cc\	.	p
.	.	.	16b\	.	.
.	.	8aa/J	16cc\	.	.
.	.	.	16a\JJ	.	.
!!LO:LB:g=original
=49	=49	=49	=49	=49	=49
[4.B-\	.	8dd/L)	16a\LL	.	.
.	.	.	16cc\	.	.
.	.	(8dd^/	16b-\	.	.
.	.	.	16a\	.	.
.	.	16ee/L	16g\	.	.
.	.	16dd/JJ	16f\JJ	.	.
=50	=50	=50	=50	=50	=50
4B-\]	.	8cc/L)	16e\LL	.	.
.	.	.	16f\	.	.
.	.	(8cc^/	16g\	.	.
.	.	.	16a\	.	.
8A\	.	8ff/J	16f\	.	.
.	.	.	16c\JJ	.	.
=51	=51	=51	=51	=51	=51
8G\	.	16b-/LL	8d\	.	.
.	.	16dd/	.	.	.
4c\	.	16cc/	4et\	.	.
.	.	16b-/	.	.	.
.	.	16a/	.	.	.
.	.	16g/JJ)	.	.	.
.	.	.	16qqd\LL	.	.
.	.	.	16qqe\JJ	.	.
=52	=52	=52	=52	=52	=52
4.F\	.	(16a/LL	4f\	.	<
.	.	16b-/	.	.	.
.	.	16cc/	.	.	.
.	.	16b-/	.	.	.
.	.	16cc/	8e\	.	[
.	.	16cc#X/JJ	.	.	.
!!LO:LB:g=original
=53	=53	=53	=53	=53	=53
4B-\	.	8ff/L	16d\LL	.	<
.	.	.	16e\	.	.
.	.	8ddd/	16f\	.	.
.	.	.	16e\	.	.
8A\	.	8ccc/J	16f\	.	.
.	.	.	16f#X\JJ	.	.
=54	=54	=54	=54	=54	=54
16G\LL	.	8bb-/L	4.g\	.	[
16A\	.	.	.	.	.
16B-\	.	8aa/	.	.	.
16A\	.	.	.	.	.
16B-\	.	8gg/J	.	.	.
16Bn\JJ	.	.	.	.	.
=55	=55	=55	=55	=55	=55
16c\LL	.	8ff/	4.g\	.	.
16d\	.	.	.	.	.
16c\	.	4eet/	.	.	.
!LO:TX:a:i:t=rit.	!	!	!	!	!
16B-\	.	.	.	.	.
16A\	.	.	.	.	.
16G\JJ	.	.	.	.	.
.	.	16qqdd/LL	.	.	.
.	.	16qqee/JJ	.	.	.
=56	=56	=56	=56	=56	=56
16F\LL	.	16ff/)	16a\	.	.
16G\	.	16r	16rgyy	.	.
!	!	!LO:TX:b:i:t=marciato il tema	!	!	!
16A\	.	8r	8c<^/L	.	.
16G\	.	.	.	.	.
16A\	.	[>8ccc/	(8f</J	.	.
16F\JJ	.	.	.	.	.
!!LO:LB:g=original
=57	=57	=57	=57	=57	=57
!	!	!	!LO:TX:b:t=P:problem=mixed beam	!	!
16G\LL	.	8ccc/L]	8g</L)	.	.
16d\J	.	.	.	.	.
8c\	.	8bb-/	16e\L	.	.
.	.	.	16f\	.	.
8B-\J	.	8ee/J	16g\	.	.
.	.	.	16a\JJ	.	.
=58	=58	=58	=58	=58	=58
4.A\	.	[8ff/L	(16f\LL	.	.
.	.	.	16a\J	.	.
.	.	16ff/L]	8cc\	.	.
.	.	16ee/	.	.	.
.	.	16ff/	8cc\J)	.	.
.	.	16gg/JJ	.	.	.
=59	=59	=59	=59	=59	=59
16A\LL	.	4aa/	4cc\	.	.
16e-X\	.	.	.	.	.
16d\	.	.	.	.	.
16c\	.	.	.	.	.
16B-\	.	8ff#X/	16dd\LL	.	.
16A\JJ	.	.	16cc\JJ	.	.
=60	=60	=60	=60	=60	=60
(8G\	.	8gg/	16b-\LL	.	.
.	.	.	16dd\	.	.
4c^\)	.	4ee/	16cc\	.	.
.	.	.	16b-\	.	>
.	.	.	16a\	.	.
.	.	.	16g\JJ	.	]]
!!LO:LB:g=original
=61	=61	=61	=61	=61	=61
8F\	.	8ff/	16a\LL	.	>
.	.	.	16cc\	.	.
4B-\	.	4dd/	16b-\	.	.
.	.	.	16a\	.	.
.	.	.	16g\	.	]
.	.	.	16f\JJ	.	.
=62	=62	=62	=62	=62	=62
4.G\	.	8ee/L	16e\LL	.	.
.	.	.	16g\	.	.
.	.	8.ff/	16a\	.	.
.	.	.	16g\	.	.
.	.	.	16a\	.	.
.	.	16dd/Jk	16bn\JJ	.	.
=63	=63	=63	=63	=63	=63
8c\	.	(<16cc/LL	16cc\	.	.
.	.	16dd/	16r	.	.
8r	.	16cc/	4r	.	.
.	.	16g/	.	.	.
8r	.	16e/	.	.	.
!	!	!LO:TX:a:i:t=legato	!	!	!
.	.	16d/JJ)	.	.	.
*	*	*v	*v	*	*
=64	=64	=64	=64	=64
*^	*	*	*	*
(16c/LL	4r	.	4r	.	.
16d/	.	.	.	.	.
16c/	.	.	.	.	.
16G/	.	.	.	.	.
16E/	8rFF	.	8r	.	.
16D/JJ	.	.	.	.	.
!!LO:LB:g=original
=65	=65	=65	=65	=65	=65
16C/LL)	8rFF	.	8r	.	.
16c/	.	.	.	.	.
!	!	!	!	!	!LO:HP:b=2
16D/	[4C\	.	8g/L	.	<
16c/	.	.	.	.	.
16E/	.	.	[8cc^>/J	.	.
16c/JJ	.	.	.	.	.
=66	=66	=66	=66	=66	=66
16C/LL	4.C\]	.	8cc/L]	.	[
16c/	.	.	.	.	<
!LO:TX:b:i:t=sempre	!	!	!	!	!
16F/	.	.	16a/L	.	.
16c/	.	.	16b-/	.	.
16F#X/	.	.	16cc/	.	.
16c/JJ	.	.	16dd/JJ	.	[
=67	=67	=67	=67	=67	=67
*	*	*	*	*	*^
!	!	!	!	!	!LO:HP:b=2	!
16G/LL	4C\	.	16b-/LL	.	<	.
16A/	.	.	16dd/J	.	.	.
!	!	!	!	!	!	!LO:DY:rj
16B-/	.	.	8gg/	.	.	f
16A/	.	.	.	.	.	.
16B-/	8C#X\	.	8gg/J	.	[	.
16e/JJ	.	.	.	.	.	.
*	*	*	*	*	*v	*v
=68	=68	=68	=68	=68	=68
!LO:TX:t=P:problem=mixed beam	!	!	!	!	!
!LO:S:s=1:note:problem=note-level slur	!	!	!	!	!
(<16A/LL	4.D\	.	(>4ff/	.	<
16c#X/	.	.	.	.	.
16d/	.	.	.	.	.
16f/J	.	.	.	.	[
8a>\J)	.	.	16gg/LL	.	.
.	.	.	16ff/JJ)	.	.
*v	*v	*	*	*	*
!!LO:PB:g=original
=69	=69	=69	=69	=69
*	*	*^	*^	*
*	*below	*	*	*	*	*
4G\	5	4ee/	16b-\LL	.	3	.
!	!	!	!	!	!	!LO:HP:a
.	.	.	16a\	.	2	>
!	!	!LO:TX:b:i:t=m. g.	!	!	!	!
.	.	.	16g\	.	.	.
.	.	.	16d\	.	.	.
8A\	.	16ff/LL	16c#X\	.	2	]
.	.	16cc#X/JJ	16g\JJ	4	1	.
*	*	*	*	*v	*v	*
=70	=70	=70	=70	=70	=70
*	*	*	*	*	*^
8.D\L	.	4dd/	16f\LL	.	<	.
.	.	.	16e\	.	.	.
!	!	!	!	!	!	!LO:DY:a
.	.	.	16d\	.	.	f
16E\L	.	.	16c#X\	.	.	.
16F\	.	8a/	16d\	.	.	.
16F#X\JJ	.	.	16cn\JJ	.	[	.
*	*	*	*	*	*v	*v
=71	=71	=71	=71	=71	=71
8G\L	.	(4b-/	16B-\LL	.	.
.	.	.	16d\	.	.
(8GG^\	.	.	16g\	.	.
.	.	.	16f\J	.	.
8C\J)	.	16cc/LL	8e-X\J	.	.
.	.	16g/JJ)	.	.	.
=72	=72	=72	=72	=72	=72
!LO:TX:t=P:problem=mixed beam	!	!	!	!	!
8D\L	.	(16f#X/LL	8d\L	.	>
.	.	16g/J	.	.	.
8DD/	.	8a/	16c\L	.	.
.	.	.	16e-X\	.	]
8D\J	.	8f#/J)	16d\	.	.
.	.	.	16c\JJ	.	.
*	*	*v	*v	*	*
!!LO:LB:g=original
=73	=73	=73	=73	=73
*^	*	*	*	*
16d>\	4.GG\	.	16g/LL	.	.
16r	.	.	16a/	.	.
(<8D^/L	.	.	16b-/	.	.
!	!	!	!LO:TX:b:Bi:t=cres-cen-do molto:problem=dynamics with extention lines	!	!LO:HP:t=cres-cen-do molto
.	.	.	16a/	.	<
8G/J)	.	.	16b-/	.	.
.	.	.	16g/JJ	.	.
=74	=74	=74	=74	=74	=74
8F/L	16BB-\LL	.	8dd/L	.	.
.	16BBn\J	.	.	.	.
16E/L	[8C\	.	8cc/	.	.
16F/	.	.	.	.	.
16G/	16C\L]	.	8e/J	.	.
16A/JJ	16C#X\JJ	.	.	.	.
=75	=75	=75	=75	=75	=75
8F/L	4.D\	.	16f/LL	.	.
.	.	.	16a/	.	.
8A/	.	.	16ff/	.	.
.	.	.	16ee/	.	[
8d/J	.	.	16ff/	.	.
.	.	.	16dd/JJ	.	.
=76	=76	=76	=76	=76	=76
8c/L	16E\LL	.	4ee/	.	.
.	16F#X\JJ	.	.	.	.
16Bn/L	4G#X\	.	.	.	.
16c/	.	.	.	.	.
16d/	.	.	8bn/	.	.
16e/JJ	.	.	.	.	.
!!LO:LB:g=original
=77	=77	=77	=77	=77	=77
16c/LL	4.A\	.	8cc/L	.	>
16d/	.	.	.	.	.
16c/	.	.	8aa/	.	.
16Bn/	.	.	.	.	.
16c/	.	.	[>8ee/J	.	]]
16e/JJ	.	.	.	.	.
*v	*v	*	*	*	*
=78	=78	=78	=78	=78
*	*	*^	*	*
4.B-\	.	8.ee/L]	16a\LL	.	.
!	!	!	!LO:TX:b:Bi:t=poco di-mi nuendo:problem=dynamics with extention lines	!	!LO:HP:t=poco di-mi nuendo
.	.	.	16f#X\JJ	.	>
.	.	.	8g\L	.	.
.	.	16cc#X/L	.	.	.
.	.	16dd/	[8g\J	.	.
.	.	16ee/JJ	.	.	.
=79	=79	=79	=79	=79	=79
*	*	*	*	*	*^
*	*	*	*	*	*	*^
!	!	!	!	!	!	!	!LO:HP:b=2
4.A\	.	8ff/L	16g\LL]	.	.	.	>
!	!	!	!	!	!	!LO:HP:a	!
.	.	.	16e\J	.	.	>	.
.	.	16ff/L	8f\	.	.	.	.
.	.	16bn/	.	.	.	.	.
.	.	16cc/	8f\J	.	.	.	.
.	.	16cc#X/JJ	.	.	]]	.	.
=80	=80	=80	=80	=80	=80	=80	=80
4G\	.	8dd/L	16f\LL	.	.	.	.
.	.	.	16d\JJ	.	.	.	.
.	.	16cc/L	4e\	.	.	.	]
.	.	16b-/	.	.	.	]	.
8C\	.	16a/	.	.	.	.	.
.	.	16g/JJ	.	.	.	.	.
*	*	*	*	*	*v	*v	*v
!!LO:LB:g=original
=81	=81	=81	=81	=81	=81
[4.F\	.	16a/LL	4f\	.	.
.	.	16b-/	.	.	.
.	.	16cc/	.	.	.
.	.	16bn/	.	.	.
.	.	16cc/	8e\	.	.
.	.	16cc#X/JJ	.	.	.
=82	=82	=82	=82	=82	=82
!	!	!	!	!	!LO:DY:a
8.F\L]	.	16dd/LL	4d\	.	sf
.	.	16g#X/JJ	.	.	.
.	.	4a/	.	.	.
16E\L	.	.	.	.	.
16F\	.	.	8c\	.	.
16F#X\JJ	.	.	.	.	.
=83	=83	=83	=83	=83	=83
!	!	!	!	!	!LO:DY:a
8G\L	.	16b-/LL	4B-\	.	sf
.	.	16f#X/J	.	.	<
16GG\L	.	8g/	.	.	.
16AA\	.	.	.	.	.
16BB-\	.	8fn/J	8A\	.	.
16BBn\JJ	.	.	.	.	[
*	*	*v	*v	*	*
=84	=84	=84	=84	=84
*^	*	*	*	*
16G/LL	[4.C\	.	8f/	.	.
!	!	!	!	!	!LO:HP:b=2
16d/	.	.	.	.	<
!	!	!	!LO:TX:b:t=ritenuto:dur=4e:ext=cs:problem=text with extention lines	!	!
16c/	.	.	4et/	.	.
16B-/	.	.	.	.	[
!	!	!	!	!	!LO:HP:b=2
16A/	.	.	.	.	>
16G/JJ	.	.	.	.	]
.	.	.	16qqd/LL	.	.
.	.	.	16qqe/JJ	.	.
!!LO:LB:g=original
=85	=85	=85	=85	=85	=85
!	!	!	!	!	!LO:HP:b=2
16A/LL	4.C\_	.	8g/	.	<
16e-X/	.	.	.	.	.
16d/	.	.	4f#Xt/	.	.
16c/	.	.	.	.	.
16B-/	.	.	.	.	[
16A/JJ	.	.	.	.	.
.	.	.	16qqe/LL	.	.
.	.	.	16qqf#/JJ	.	.
=86	=86	=86	=86	=86	=86
16B-/LL	4.C\_	.	8a/L	.	.
16f/	.	.	.	.	.
16e/	.	.	8g/	.	.
16d/	.	.	.	.	.
!	!	!	!LO:TX:b:i:t=poco ritard.:dur=3e	!	!
16d-X/	.	.	8b-/J	.	.
16B-/JJ	.	.	.	.	.
=87	=87	=87	=87	=87	=87
16A/LL	4.C\_	.	16f/LL	.	.
16c/	.	.	16e/J	.	.
16B-/	.	.	8d/	.	.
16A/	.	.	.	.	.
16B-/	.	.	8g/J	.	.
16G/JJ	.	.	.	.	.
=88	=88	=88	=88	=88	=88
16F#X/LL	4C\]	.	(4d/	.	.
16B-/	.	.	.	.	.
16A/	.	.	.	.	.
16G/	.	.	.	.	.
!	!LO:S:s=1:note:problem=note-level slur	!	!	!	!
16c/	(>8CC\	.	8e/)	.	.
16B-/JJ	.	.	.	.	.
!!LO:LB:g=original
=89	=89	=89	=89	=89	=89
*	*	*	*	*	*^
!	!	!	!LO:TX:b:i:t=à tempo	!	!	!
4.A/	16DD\)	.	16f/LL	.	.	.
.	16r	.	16g/	.	.	.
.	(>8C^>\L	.	16a/	.	<	.
!	!	!	!	!	!	!LO:DY:a:rj
.	.	.	16g/	.	.	mf
.	[<8F\J)	.	16a/	.	.	.
.	.	.	16b-/JJ	.	[[	.
*	*	*	*	*	*v	*v
=90	=90	=90	=90	=90	=90
*	*	*	*^	*	*
8G/	8F\L]	.	4cc/	[4.c\	.	.
4ryy	16E\L	.	.	.	.	.
.	16F\	.	.	.	.	.
.	16G\	.	8b-/	.	.	.
.	16A\JJ	.	.	.	.	.
*v	*v	*	*	*	*	*
=91	=91	=91	=91	=91	=91
16F\LL	.	[8a/L	8c\]	.	.
16A\J	.	.	.	.	<
8c\	.	16a/L]	[8a\L	.	.
.	.	16b-/	.	.	.
8c\J	.	16cc/	16a\L]	.	.
.	.	16dd/JJ	16a-X\JJ	.	[
=92	=92	=92	=92	=92	=92
*	*	*	*	*^	*^
4c\	.	16ee/LL	16g\LL	.	1	.	.
.	.	16ff/J	16f\	.	2	.	.
!	!	!	!	!	!	!LO:HP:t=cres	!LO:DY:a
.	.	8gg/	16e\	.	3	<	sf
.	.	.	16cc\J	.	.	.	.
16d\LL	.	16ff/L	8f\J	.	.	.	.
16c\JJ	.	16ee/JJ	.	.	.	.	.
*	*	*	*	*v	*v	*	*
*	*	*	*	*	*v	*v
!!LO:PB:g=original
=93	=93	=93	=93	=93	=93
16B-\LL	.	8.dd/L	[4f\	.	<
16d\	.	.	.	.	.
16c\	.	.	.	.	[
16B-\	.	16g/L	.	.	>
16A\	.	16a/	16f\LL]	.	.
16G\JJ	.	16b-/JJ	16e\JJ	.	]
=94	=94	=94	=94	=94	=94
16A\LL	.	8.cc/L	4.e-X\	.	<
16c\	.	.	.	.	.
16B-\	.	.	.	.	[
16A\	.	16f/L	.	.	>
16G\	.	16g/	.	.	.
16F\JJ	.	16a/JJ	.	.	]
=95	=95	=95	=95	=95	=95
*	*	*	*	*	*^
!	!	!	!	!	!	!LO:HP:b=2
16G\LL	.	4b-/	16d\LL	.	.	<
16F\	.	.	16d-X\JJ	.	.	.
16E\	.	.	4c\	.	.	.
!	!	!LO:TX:b:Bi:t=poco a poco cres-cen do:problem=dynamics with extention lines	!	!	!LO:HP:t=poco a poco cres-cen do	!
16C\	.	.	.	.	<	.
16F\	.	8a/	.	.	.	.
16E\JJ	.	.	.	.	.	.
=96	=96	=96	=96	=96	=96	=96
16D\LL	.	8a/	4B-\	.	.	[
16BB-\	.	.	.	.	.	.
16E\	.	4g/	.	.	.	.
16D\	.	.	.	.	.	.
16C#X\	.	.	[8A\	.	.	.
16AA\JJ	.	.	.	.	.	.
*	*	*	*	*	*v	*v
!!LO:LB:g=original
=97	=97	=97	=97	=97	=97
16D\LL	.	8f/L	16A\LL]	.	.
16C\	.	.	16e\	.	.
16BB-\	.	8.g/	16d\	.	.
16AA\J	.	.	16c\	.	.
8GG\J	.	.	16B-\	.	.
.	.	16f/Jk	16Bn\JJ	.	.
=98	=98	=98	=98	=98	=98
*	*	*	*	*	*^
!	!	!	!	!	!	!LO:DY:a
4CC\	.	(4.e/	16c\LL	.	.	sf
.	.	.	16d\	.	[	.
.	.	.	16c\	.	.	.
.	.	.	16B-X\	.	.	.
8CC#X\	.	.	16A\	.	.	.
.	.	.	16G\JJ	.	.	.
*	*	*	*	*	*v	*v
=99	=99	=99	=99	=99	=99
8DD\L	.	8f/L	16F\LL	.	<
.	.	.	16d\	.	.
8DD#X\	.	8f#X/	16c\	.	.
.	.	.	16B-\	.	.
8EE\J	.	8g/J)	16A\	.	.
.	.	.	16G\JJ	.	.
=100	=100	=100	=100	=100	=100
8FF\L	.	4a/	16F\LL	.	.
.	.	.	16e-X\	.	.
8FF#X\	.	.	16d\	.	.
.	.	.	16c\	.	.
8GG\J	.	[8b-/	16B-\	.	.
.	.	.	16f\JJ	.	[
!!LO:LB:g=original
=101	=101	=101	=101	=101	=101
8GG#X\L	.	8b-/L]	16e\LL	.	.
.	.	.	16d\	.	.
8AA\	.	16a/L	16c#X\	.	ff
.	.	16cc#X/J	16e\	.	.
8BB-\J	.	[8dd/J	16d\	.	.
.	.	.	16a\JJ	.	.
=102	=102	=102	=102	=102	=102
8BBn\L	.	8dd/]	16g\LL	.	.
.	.	.	16f\	.	.
8C\	.	4ee/	16e\	.	.
.	.	.	16b-\	.	.
!	!	!	!	!	!LO:DY:rj
8C#X\J	.	.	16a\	.	ff
.	.	.	16g\JJ	.	.
=103	=103	=103	=103	=103	=103
4D\	.	16ff/LL	4f@\	.	sff
.	.	16ee/	.	.	.
.	.	16dd/	.	.	.
.	.	16cc/J	.	.	.
!	!	!	!LO:TX:b:t=P:problem=cross-measure beam	!	!
[8GG^\	.	[8b-/J	16g\LL	.	.
.	.	.	16f\	.	.
=104	=104	=104	=104	=104	=104
!	!	!LO:N:vis=4	!	!	!
8GG\]	.	8b-/]	16e\	.	.
.	.	.	16d\JJ	.	.
4AA\	.	16a/LL	4c#X\	.	.
.	.	16g/	.	.	.
.	.	16f/	.	.	.
.	.	16e/JJ	.	.	.
*	*	*v	*v	*	*
!!LO:LB:g=original
=105	=105	=105	=105	=105
*^	*	*	*	*
!	!	!	!	!	!LO:DY:t=sfp.
16d>\	4DD\	.	16f/LL	.	sfp
16ryy	.	.	16e/	.	.
!LO:TX:t=P:problem=cross-measure beam	!	!	!	!	!
8F/L	.	.	16d/	.	.
.	.	.	16c/J	.	.
16G/L	[8GGG^>\	.	[8B-/J	.	.
16F/	.	.	.	.	.
=106	=106	=106	=106	=106	=106
16E/	8GGG\]	.	8B-/L]	.	.
16D/JJ	.	.	.	.	.
8C#X/L	4AAA\	.	16A/L	.	.
.	.	.	16B-/	.	.
8G/J	.	.	16Bn/	.	.
.	.	.	16c#X/JJ	.	.
=107	=107	=107	=107	=107	=107
16F/	8DD\	.	16d/	.	.
16r	.	.	16r	.	.
8r	4rDD	.	8a^>/L	.	mf
8r	.	.	[>8dd/J	.	.
*v	*v	*	*	*	*
=108	=108	=108	=108	=108
*	*	*^	*	*
4r	.	8dd/L]	8r	.	.
.	.	16cc#X/L	8e\L	.	mf
.	.	16dd/	.	.	.
8r	.	16ee/	8a\J	.	.
.	.	16ff/JJ	.	.	.
!!LO:LB:g=original
=109	=109	=109	=109	=109	=109
8r	.	16dd/LL	8f\L	.	.
.	.	16ff/J	.	.	.
8A^\L	.	8aa/	16f\L	.	.
.	.	.	16e\	.	.
[8d\J	.	8aa/J	16f\	.	.
.	.	.	16g\JJ	.	.
=110	=110	=110	=110	=110	=110
8d\L]	.	8gg/L	16e\LL	.	.
.	.	.	16b-\JJ	.	.
16c#X\L	.	8aa/	4a\	.	.
16d\	.	.	.	.	.
16e\	.	16gg/L	.	.	>
16f\JJ	.	16ff/JJ	.	.	.
=111	=111	=111	=111	=111	=111
8g\L	.	16ee/LL	4g\	.	.
.	.	16ff/	.	.	.
8B-\	.	16ee/	.	.	.
.	.	16dd/	.	.	.
8e\J	.	16cc#X/	8g#X\	.	.
.	.	16dd/JJ	.	.	]
=112	=112	=112	=112	=112	=112
4.A\	.	4ff/	16a\LL	.	.
.	.	.	16b-\	.	.
.	.	.	16a\	.	.
.	.	.	16g#X\	.	.
.	.	16ee/LL	16gn\	.	.
.	.	16cc#X/JJ	16e\JJ	.	.
!!LO:LB:g=original
=113	=113	=113	=113	=113	=113
!	!	!	!	!	!LO:HP:b=2
16d\LL	.	16dd/	8f\	.	<
16e\	.	16r	.	.	.
16f\	.	8aa/L	4r	.	.
16e\	.	.	.	.	[
!	!	!	!	!	!LO:HP:b=2
16f\	.	[8dd/J	.	.	>
16d\JJ	.	.	.	.	]]
=114	=114	=114	=114	=114	=114
4.A\	.	8dd/L]	16a\LL	.	] <
.	.	.	16b-\	.	.
.	.	16ff/L	16a\	.	.
.	.	.	.	.	[
.	.	16ee/	16g\	.	>
.	.	16dd/	16f\	.	.
.	.	16cc#X/JJ	16e\JJ	.	]
=115	=115	=115	=115	=115	=115
!	!	!	!	!	!LO:HP:b=2
16d\LL	.	[4.dd/	16f\	.	<
16c\	.	.	16r	.	.
16B-\	.	.	8dd^\L	.	.
16A\	.	.	.	.	.
16B-\	.	.	8g\J	.	.
16G\JJ	.	.	.	.	[
=116	=116	=116	=116	=116	=116
16d\LL	.	4.dd/_	8g\L	.	.
16e-X\	.	.	.	.	.
16d\	.	.	16b-\L	.	.
16c\	.	.	16a\	.	.
16B-\	.	.	16g\	.	.
16A\JJ	.	.	16f#X\JJ	.	.
!!LO:PB:g=original
=117	=117	=117	=117	=117	=117
16B-\	.	16dd/LL]	4g\	.	.
16r	.	16ee/	.	.	.
!LO:TX:b:i:t=marcato il baſso:dur=4e	!	!	!	!	!
8A\L	.	16dd/	.	.	.
.	.	16cc#X/	.	.	.
!	!	!	!	!	!LO:DY:rj
[8D\J	.	16dd/	8f\	.	f
.	.	16a/JJ	.	.	.
=118	=118	=118	=118	=118	=118
8D\L]	.	16g/LL	4e\	.	.
.	.	16b-/	.	.	.
8C#X\	.	16a/	.	.	<
.	.	16g/	.	.	.
16D\L	.	16f/	[8d\	.	.
16Cn\JJ	.	16a/JJ	.	.	.
=119	=119	=119	=119	=119	=119
16BB-\LL	.	16g/LL	16d\LL]	.	.
16AA\J	.	16f/	16c\JJ	.	[
8GG\	.	16e/	8B-\L	.	.
.	.	16g/	.	.	.
8AA\J	.	16f/	16Bn\L	.	.
.	.	16e/JJ	16c#X\JJ	.	.
=120	=120	=120	=120	=120	=120
8DD\L	.	16d/	16d\LL	.	.
.	.	16r	16c#X\	.	.
8D\	.	8a/L	16d\	.	f
.	.	.	16e\	.	.
8d\J	.	[8dd/J	16f\	.	.
.	.	.	16g\JJ	.	.
!!LO:LB:g=original
=121	=121	=121	=121	=121	=121
8AA\L	.	8dd/]	16e\LL	.	.
.	.	.	16b-\	.	.
8A\	.	(4cc#X^/	16a\	.	.
.	.	.	16g\	.	.
8AAA\J	.	.	16f\	.	ff
.	.	.	16e\JJ	.	.
=122	=122	=122	=122	=122	=122
8DD\L	.	8dd/L)	16f\LL	.	.
.	.	.	16e\	.	.
8D\	.	(8a/	16f\	.	.
.	.	.	16g\	.	.
8d\J	.	[8ff/J	16f\	.	.
.	.	.	16b-\JJ	.	.
=123	=123	=123	=123	=123	=123
8C\L	.	8ff/]	16a\LL	.	.
.	.	.	16b-\	.	.
8c\	.	4ee/	16g\	.	.
.	.	.	16dd\	.	.
8CC\J	.	.	16cc\	.	.
.	.	.	16b-\JJ)	.	.
=124	=124	=124	=124	=124	=124
8FF\	.	8ff/L	16a\LL	.	>
.	.	.	16b-\	.	.
4F\	.	8cc/	16a\	.	.
.	.	.	16g\	.	.
.	.	[8aa/J	16f\	.	]
.	.	.	16e\JJ	.	.
!!LO:LB:g=original
=125	=125	=125	=125	=125	=125
*	*	*	*	*	*^
!LO:TX:b:Bi:t=dimin. poco e:problem=dynamics with extention lines	!	!	!	!	!LO:HP:b=2:t=dimin. poco e	!
4Bn\	.	8aa/]	16d\LL	.	>	.
.	.	.	16f\	.	.	<
.	.	4gg#X/	16e\	.	.	.
.	.	.	16d\	.	.	[
8E\	.	.	16c#X\	.	.	>
.	.	.	16cn\JJ	.	.	]
=126	=126	=126	=126	=126	=126	=126
!LO:TX:b:t=poco a	!	!	!	!	!	!
4A\	.	(8ggn/	16c#X\LL	.	.	>
.	.	.	16e\	.	.	.
.	.	4ff/)	16d\	.	.	.
.	.	.	16cn\	.	]	.
8D\	.	.	16B-X\	.	.	]
.	.	.	16A\JJ	.	.	.
*	*	*v	*v	*	*v	*v
=127	=127	=127	=127	=127
*^	*	*	*	*
16G/LL	4E\	.	8ee/L	.	.
16A/	.	.	.	.	.
16B-/	.	.	8dd/	.	.
16d/	.	.	.	.	.
16e/	8AA\	.	8cc#X/J	.	.
16a/JJ	.	.	.	.	.
*v	*v	*	*	*	*
=128	=128	=128	=128	=128
*	*	*^	*	*
!	!	!LO:S:s=1:note:problem=note-level slur	!	!	!
8D\	.	(<16dd/LL	8f\	.	.
.	.	16ee/	.	.	>
4r	.	16dd/	8r	.	.
.	.	16a/	.	.	.
.	.	16f/	8r	.	.
.	.	16d/JJ)	.	.	]
*	*	*v	*v	*	*
!!LO:LB:g=original
=129	=129	=129	=129	=129
*^	*	*	*	*
16G/LL	4EE\	.	8e/L	.	.
16A/	.	.	.	.	.
16B-/	.	.	8d/	.	.
16G/	.	.	.	.	.
16A/	8AAA\	.	8c#X/J	.	.
16E/JJ	.	.	.	.	.
=130	=130	=130	=130	=130	=130
8F/	8DD\	.	(16d/LL	.	.
.	.	.	16e/	.	.
4r	4rCC	.	16d/	.	.
.	.	.	16A/	.	.
.	.	.	16F</	.	.
.	.	.	16E</JJ	.	.
*v	*v	*	*	*	*
=131	=131	=131	=131	=131
*	*	*^	*	*
4.rFF	.	4.r	16D</LL	.	.
.	.	.	16E</	.	.
.	.	.	16D</	.	.
!LO:TX:a:i:t=rallentando:color=grey	!	!	!	!	!
.	.	.	16AA</	.	.
.	.	.	16FF</)	.	.
!	!	!	!LO:TX:b:t=P:problem=łuk do ostatniej szesnastki, błędne wyświetlanie	!	!
.	.	.	16EE</JJ	.	.
*	*	*v	*v	*	*
=132	=132	=132	=132	=132
*^	*	*	*	*
4.r	(>16DD\LL	.	4.r	.	.
.	16EE\	.	.	.	.
.	16DD\	.	.	.	.
.	16BBB-\	.	.	.	.
.	16AAA\	.	.	.	.
.	16FFF\JJ)	.	.	.	.
!!LO:LB:g=original
=133	=133	=133	=133	=133	=133
4.r	[4.GGG#X;>\	.	4.r	.	.
=134	=134	=134	=134	=134	=134
4.r	4.GGG#\_	.	8r	.	.
.	.	.	(>8f^>/L	.	sf
.	.	.	16e/L	.	.
.	.	.	16d/JJ	.	.
*v	*v	*	*	*	*
=135	=135	=135	=135	=135
4.GGG#\_	.	16c#X/LL	.	.
.	.	16e/	.	.
.	.	16d/	.	.
.	.	16B-/	.	.
.	.	16F</	.	.
.	.	16E</JJ	.	.
=136	=136	=136	=136	=136
*^	*	*	*	*
4rFF	4.GGG#\_	.	8D</)	.	.
.	.	.	(8F<^/L	.	.
8rFF	.	.	16E</L	.	.
.	.	.	16D</JJ	.	.
*v	*v	*	*	*	*
!!LO:LB:g=original
=137	=137	=137	=137	=137
4.GGG#\_	.	16C#<X/LL	.	.
.	.	16E</	.	.
.	.	16D</	.	.
.	.	16BB-</	.	.
.	.	16FF</	.	.
.	.	16EE</JJ)	.	.
=138	=138	=138	=138	=138
4.GGG#\_	.	(16DD</LL	.	.
.	.	16FF</	.	.
.	.	16BB-</	.	.
.	.	16C#<X/	.	.
.	.	16D</	.	.
.	.	16F</JJ	.	.
=139	=139	=139	=139	=139
*^	*	*	*	*
4r	4.GGG#\_	.	16B-</LL	.	.
.	.	.	16c#<X/	.	.
.	.	.	16d/	.	<
.	.	.	16f/	.	.
8r	.	.	16b-/	.	.
.	.	.	16cc#X/JJ)	.	[[
*v	*v	*	*	*	*
=140	=140	=140	=140	=140
!	!	!LO:TUP:b:problem=klamra łukowa	!	!LO:HP:t=cres
4.GGG#\_<	.	56%3dd/LL	.	<
.	.	56%3ee/	.	.
.	.	56%3gg/	.	.
!	!	!	!	!LO:DY:rj
.	.	56%3ff/	.	f
.	.	56%3dd/	.	.
.	.	56%3b-/	.	.
.	.	56%3f/JJ	.	.
!!LO:PB:g=original
=141	=141	=141	=141	=141
*^	*	*	*	*
4.r	4.GGG#\]	.	(16d/LL	.	.
.	.	.	16e/	.	.
.	.	.	16g/	.	.
.	.	.	16f/	.	.
.	.	.	16d/	.	.
.	.	.	16B-/JJ)	.	.
=142	=142	=142	=142	=142	=142
*	*	*	*	*	*^
!	!	!	!	!	!LO:DY:a	!
4.r	[4.AAA\	.	[4.A;/	.	sf	.
!	!	!	!	!	!	!LO:DY:t=piano
.	.	.	.	.	.	p
*	*	*	*	*	*v	*v
=143	=143	=143	=143	=143	=143
8r	4.AAA\_	.	8A/]	.	.
(8A^/L	.	.	4ryy	.	.
!	!	!	!	!	!LO:DY:b=2:rj
16B-/L	.	.	.	.	pp
16A/JJ	.	.	.	.	.
=144	=144	=144	=144	=144	=144
16G/LL	4.AAA\_	.	4.r	.	.
16B-/	.	.	.	.	.
16A/	.	.	.	.	.
16G/	.	.	.	.	.
16F/	.	.	.	.	.
16E/JJ)	.	.	.	.	.
!!LO:LB:g=original
=145	=145	=145	=145	=145	=145
4.F/	4.AAA\_	.	8r	.	.
!	!	!	!	!	!LO:HP:a
.	.	.	8d/L	.	<
.	.	.	16e/L	.	.
.	.	.	16d/JJ	.	[
=146	=146	=146	=146	=146	=146
4F#X/	4.AAA\]	.	16c/LL	.	.
!	!	!	!	!	!LO:HP:a
.	.	.	.	.	>
.	.	.	16e-X/	.	.
.	.	.	16d/	.	.
.	.	.	16c/	.	.
8D/	.	.	16B-/	.	]
.	.	.	16A/JJ	.	.
=147	=147	=147	=147	=147	=147
!LO:S:s=1:note:problem=note-level slur	!	!	!	!	!
(<8G/L	4.AAA\	.	16B-/LL	.	.
.	.	.	16d/	.	.
8D/	.	.	16c/	.	.
.	.	.	16B-/	.	.
8BB-/J)	.	.	16A/	.	.
.	.	.	16G/JJ	.	.
=148	=148	=148	=148	=148	=148
16C#X/LL	4.AAA\	.	[4.A/	.	.
.	.	.	.	.	<
16D/	.	.	.	.	.
16E/	.	.	.	.	.
16D/	.	.	.	.	.
16E/	.	.	.	.	.
16C#/JJ	.	.	.	.	[
!!LO:LB:g=original
=149	=149	=149	=149	=149	=149
16D/LL	4.AAA\	.	8.A/L]	.	.
16E/JJ	.	.	.	.	.
4F/	.	.	.	.	.
.	.	.	16Bn/L	.	.
.	.	.	16c#X/	.	.
.	.	.	16d/JJ	.	.
=150	=150	=150	=150	=150	=150
16E/LL	4.AAA\	.	(>16c#X/LL	.	.
16F/	.	.	16d/	.	.
!	!	!	!LO:TX:b:Bi:t=cres-cen do:problem=dynamics with extention lines	!	!LO:HP:t=cres-cen do
16G/	.	.	16e/	.	<
16F/	.	.	16d/	.	.
16G/	.	.	16e/	.	.
16E/JJ	.	.	16c#X/JJ	.	.
=151	=151	=151	=151	=151	=151
16F/LL	4.AAA\	.	16d/LL	.	.
16A/	.	.	16e/	.	.
16d/	.	.	16f/	.	.
16c#X/J	.	.	16e/	.	[
8d/J	.	.	16f/	.	.
.	.	.	16a/JJ)	.	.
=152	=152	=152	=152	=152	=152
16e>\LL	4.AAA\	.	(>16cc#X/LL	.	<
16f>\	.	.	16dd/	.	.
16g>\	.	.	16ee/	.	.
16f>\	.	.	16dd/	.	.
16g>\	.	.	16ee/	.	.
16e>\JJ	.	.	16cc#/JJ	.	[
!!LO:LB:g=original
=153	=153	=153	=153	=153	=153
16f>\LL	4.AAA\	.	16dd/LL	.	.
16a>\	.	.	16ee/	.	.
16dd>\	.	.	16ff/	.	.
16cc#>X\J	.	.	16ee/	.	sf
8dd>\J	.	.	16ff/	.	.
.	.	.	16aa/JJ)	.	.
=154	=154	=154	=154	=154	=154
16ee>\LL	4.AAA\	.	(>16gg/LL	.	.
16dd>\	.	.	16bb-/	.	.
16cc#>X\	.	.	16aa/	.	.
16b->\	.	.	16ee/	.	.
16a>\	.	.	16ff/	.	.
16g>\JJ	.	.	16cc#X/JJ	.	.
=155	=155	=155	=155	=155	=155
!	!	!	!	!	!LO:DY:t=forte
16f>\LL	4.AAA\	.	16dd/LL	.	f
16a>\	.	.	16ff/	.	.
16g>\	.	.	16ee/	.	.
16f>\	.	.	16dd/	.	.
16d>\	.	.	16b-/	.	.
16f>\JJ	.	.	16a/JJ)	.	.
=156	=156	=156	=156	=156	=156
16e>\LL	4.AAA\	.	(>16g/LL	.	<
16d>\	.	.	16b-/	.	.
16c#>X\	.	.	16a/	.	.
16B->\	.	.	16e/	.	.
16A>\	.	.	16f/	.	.
16G>\JJ	.	.	16c#X/JJ	.	[[
!!LO:LB:g=original
=157	=157	=157	=157	=157	=157
16F/LL	4.AAA\	.	16d/LL	.	.
16A/	.	.	16f/	.	.
16G/	.	.	16e/	.	.
16F/	.	.	16d/	.	.
16D/	.	.	16B-/	.	.
16F/JJ	.	.	16A/JJ)	.	.
=158	=158	=158	=158	=158	=158
*	*	*	*	*	*^
16E/LL	4.AAA\	.	(>16G/LL	.	.	.
16D/	.	.	16B-/	.	.	.
16C#X/	.	.	16A/	.	.	.
!	!	!	!	!	!LO:HP:a	!
16E/	.	.	16Bn/	.	<	.
16A/	.	.	16c#X/	.	.	.
16Bn/JJ	.	.	16d/JJ	.	.	<
=159	=159	=159	=159	=159	=159	=159
16c#>X\LL	4.AAA\	.	16e/LL	.	.	.
16d>\	.	.	16f/	.	.	.
16e>\	.	.	16g/	.	[	.
16f>\	.	.	16a/	.	.	.
16g>\	.	.	16bn/	.	.	.
16e>\JJ	.	.	16cc#X/JJ)	.	.	[[
*	*	*	*	*	*v	*v
=160	=160	=160	=160	=160	=160
8f>\	[<4.DD\	.	8dd/	.	.
8d>/L	.	.	4rff	.	.
8f>/J	.	.	.	.	.
!!LO:LB:g=original
=161	=161	=161	=161	=161	=161
16r>	4.DD\_<	.	(4a^/	.	.
16g>\LL	.	.	.	.	.
16f>\	.	.	.	.	.
16e>\J	.	.	.	.	.
8d>\J	.	.	16b-/LL	.	.
.	.	.	16a/JJ)	.	.
=162	=162	=162	=162	=162	=162
16B->\LL	4.DD\_<	.	(4g/	.	.
16f>\	.	.	.	.	.
16e->X\	.	.	.	.	.
16d>\J	.	.	.	.	.
8c#>X\J	.	.	16a/LL	.	.
.	.	.	16g/JJ)	.	.
=163	=163	=163	=163	=163	=163
16d>\LL	4.DD\]	.	(4f/	.	.
16en>\	.	.	.	.	.
16d>\	.	.	.	.	.
16c>\	.	.	.	.	.
16B->\	.	.	16g/LL	.	.
16A>\JJ	.	.	16f/JJ)	.	.
=164	=164	=164	=164	=164	=164
16G>\LL	4.DD\	.	(4e/	.	.
16d>\	.	.	.	.	.
16c#>X\	.	.	.	.	.
16B->\	.	.	.	.	.
16A>\	.	.	16f/LL	.	.
16G>\JJ	.	.	16c#y/JJ)	.	.
!!LO:PB:g=original
=165	=165	=165	=165	=165	=165
*	*	*	*	*	*^
8F/L	4.DD\	.	16d/LL	.	<	.
!	!	!	!	!	!	!LO:HP:b=2
.	.	.	16e/	.	.	<
8D/	.	.	16f/	.	.	.
.	.	.	16e/	.	.	.
8A/J	.	.	16f/	.	.	.
.	.	.	16g/JJ	.	[	[
*	*	*	*	*	*v	*v
=166	=166	=166	=166	=166	=166
!LO:S:s=1:note:problem=note-level slur	!	!	!	!	!LO:HP:a
(<4A/	4.DD\	.	16f/LL	.	>
.	.	.	16e/	.	.
.	.	.	16d/	.	.
.	.	.	16c/J	.	.
16B-/LL)	.	.	8d/J	.	.
16A/JJ	.	.	.	.	]
=167	=167	=167	=167	=167	=167
!LO:S:s=1:note:problem=note-level slur	!	!	!	!	!LO:DY:rj
(<4G/	4.DD\	.	16e/LL	.	ff
!	!	!	!	!	!LO:HP:a
.	.	.	16f/	.	>
.	.	.	16e/	.	.
.	.	.	16d/J	.	.
16A/LL)	.	.	8c#X/J	.	]]
16G/JJ	.	.	.	.	.
=168	=168	=168	=168	=168	=168
!LO:S:s=1:note:problem=note-level slur	!	!	!	!	!LO:HP:a
(<4F/	4.DD\	.	16d/LL	.	>
.	.	.	16e/	.	.
.	.	.	16d/	.	.
.	.	.	16cn/J	.	.
16G/LL)	.	.	8B-/J	.	]]
16F/JJ	.	.	.	.	.
!!LO:LB:g=original
=169	=169	=169	=169	=169	=169
16E/LL	[4.DD\	.	16B-/LL	.	.
16F/	.	.	16A/	.	.
16E/	.	.	16G/	.	.
16D/J	.	.	16F/	.	.
8C#X/J	.	.	16E/	.	.
.	.	.	16A/JJ	.	.
=170	=170	=170	=170	=170	=170
16D/LL	4.DD\_	.	8r	.	.
16E/	.	.	.	.	.
!	!	!	!LO:TX:a:i:t=stringendo violente:dur=4e	!	!
16F/	.	.	(8A/L	.	.
16E/	.	.	.	.	.
16F/	.	.	8d/J	.	.
16D/JJ	.	.	.	.	.
=171	=171	=171	=171	=171	=171
16A/LL	4.DD\]	.	16c#X/LL)	.	.
16Bn/	.	.	16d/J	.	.
16c#X/	.	.	8e/	.	.
16B/	.	.	.	.	.
16c#/	.	.	8a/J	.	.
16A/JJ	.	.	.	.	.
*v	*v	*	*	*	*
=172	=172	=172	=172	=172
*	*	*^	*	*
[4.DD\	.	8r	16d\LL	.	.
.	.	.	16e\	.	.
.	.	(8a/L	16f\	.	.
.	.	.	16e\	.	.
.	.	8dd/J	16f\	.	.
.	.	.	16d\JJ	.	.
!!LO:LB:g=original
=173	=173	=173	=173	=173	=173
4.DD\]	.	16cc#X/LL	16a\LL	.	ff
.	.	16dd/J	16bn\	.	.
.	.	8ee/	16cc#\	.	.
.	.	.	16b\	.	.
.	.	8aa/J)	16cc#\	.	.
.	.	.	16a\JJ	.	.
=174	=174	=174	=174	=174	=174
[4.DD\	.	8r	16dd\LL	.	.
.	.	.	16ee\	.	.
.	.	(8aa/L	16ff\	.	.
.	.	.	16ee\	.	.
.	.	8ddd/J	16ff\	.	.
.	.	.	16dd\JJ	.	.
=175	=175	=175	=175	=175	=175
4.DD\]	.	16ccc#X/LL	16aa\LL	.	.
.	.	16ddd/J	16bbn\	.	.
.	.	8eee/	16ccc#\	.	.
.	.	.	16bb\	.	.
.	.	8fff/J)	16ccc#\	.	.
.	.	.	16aa\JJ	.	.
=176	=176	=176	=176	=176	=176
4.DD\	.	16fff/LL	(16ddd\LL	.	.
.	.	16eee/	16aa\	.	fff
.	.	16ddd/	16ff\	.	.
.	.	16eee/	16aa\	.	.
.	.	16ddd/	16ff\	.	.
.	.	16aa/JJ	16ee\JJ	.	.
!!LO:LB:g=original
=177	=177	=177	=177	=177	=177
4.DD\	.	16ff/LL	16dd\LL	.	.
.	.	16aa/	16ee\	.	.
.	.	16ff/	16dd\	.	.
.	.	16ee/	16a\	.	.
.	.	16dd/	16f\	.	>
.	.	16ee/JJ	16a\JJ)	.	.
=178	=178	=178	=178	=178	=178
4.DD\	.	(16dd/LL	16f\LL	.	.
.	.	16a/	16e\	.	.
.	.	16f/	16d\	.	.
.	.	16a/	16e\	.	.
.	.	16f/	16d\	.	]]
.	.	16e/JJ	16A\JJ	.	.
*	*	*v	*v	*	*
=179	=179	=179	=179	=179
*^	*	*	*	*
4.DD\	16F/LL	.	16d/LL	.	.
.	16A/	.	16e/	.	.
.	16F/	.	16d/	.	.
.	16E/	.	16A/	.	.
.	16D/	.	16F/	.	.
.	16E/JJ	.	16A/JJ)	.	.
*v	*v	*	*	*	*
!!LO:LB:g=original
=180	=180	=180	=180	=180
4.DD\	.	(16F<LL 16D</	.	>
.	.	16E< 16AA</	.	.
.	.	16D< 16FF</	.	.
.	.	16E< 16AA</	.	.
.	.	16D< 16FF</	.	.
.	.	16AA<JJ 16EE</)	.	]]
=181	=181	=181	=181	=181
*^	*	*	*	*
!	!	!	!	!	!LO:DY:b=2:rj
8DD/	4.DD\	.	8r	.	sf
!	!	!	!LO:TX:b:i:t=più lento	!	!LO:DY:a:rj
4r	.	.	8A/L	.	mf
!	!	!	!LO:T:color=grey	!	!
.	.	.	[>8d/J	.	.
!	!	!	!	!	!LO:DY:b=2
.	.	.	.	.	p
=182	=182	=182	=182	=182	=182
4.B-/	4.GG\	.	8d/L]	.	.
.	.	.	16c#X/L	.	<
.	.	.	16d/	.	.
.	.	.	16e/	.	.
.	.	.	16f/JJ	.	[[
=183	=183	=183	=183	=183	=183
4.A/	4.FF\	.	16d/LL	.	.
.	.	.	16f/JJ	.	.
.	.	.	4a;/	.	sf
!!LO:LB:g=original
=184	=184	=184	=184	=184	=184
4r	4ryy	.	4r	.	.
(8G/	(8AA\	.	(8c#X/	.	.
=185	=185	=185	=185	=185	=185
*	*	*	*	*	*^
!	!	!	!	!	!LO:DY:a:rj	!LO:DY:b=2:rj
4F/)	4DD\)	.	4d/)	.	p	p
8r	8ryy	.	8r	.	.	.
*v	*v	*	*	*	*v	*v
==	==	==	==	==
*-	*-	*-	*-	*-
!!!system-decoration: {(s1,s2)}
!!!RDF**kern: > = above
!!!RDF**kern: < = below
!!!RDF**kern: @ = marked note, color=grey
!!!ENC: Filip Voros
!!!END: 2021-11-04
!!!ENC: Andrzej Kubiczek
!!!END: 2021-11-06
